X:16
T:The Glass of Beer
R:reel
M:C
L:1/8
K:D
"Bm" fB   ~B2    fBaB | "Bm" fB ~B2 "A" ~e2 de | "Bm" fB ~B2 f2  {a}fe |1 "D" dfaf "A" e2 de :|2 "D" dfaf  "A" e2 dc ||
"D" dcde (f{g}f{e}f)e | "D" d2  fd   "A" eA A2 | "D" dcde (f{g}f{e}f)e |1 "D" dfaf "A" e2 dc :|2 "Bm" dfaf "A" e2 de |]
